packages/astro-components-stencil/src/icons/ballot.svg

<svg xmlns="http://www.w3.org/2000/svg" viewBox="0 0 24 24"><g xmlns="http://www.w3.org/2000/svg" id="ballot" fill-rule="nonzero">
            <path d="M14 9.5h3c.55 0 1-.45 1-1s-.45-1-1-1h-3c-.55 0-1 .45-1 1s.45 1 1 1zm0 7h3c.55 0 1-.45 1-1s-.45-1-1-1h-3c-.55 0-1 .45-1 1s.45 1 1 1zm5 4.5H5c-1.1 0-2-.9-2-2V5c0-1.1.9-2 2-2h14c1.1 0 2 .9 2 2v14c0 1.1-.9 2-2 2zM7 11h3c.55 0 1-.45 1-1V7c0-.55-.45-1-1-1H7c-.55 0-1 .45-1 1v3c0 .55.45 1 1 1zm0-4h3v3H7V7zm0 11h3c.55 0 1-.45 1-1v-3c0-.55-.45-1-1-1H7c-.55 0-1 .45-1 1v3c0 .55.45 1 1 1zm0-4h3v3H7v-3z"/>
        </g></svg>

<svg width="24" height="24" viewBox="0 0 24 24" fill="none" xmlns="http://www.w3.org/2000/svg">
<path fill-rule="evenodd" clip-rule="evenodd" d="M5 21H19C20.1 21 21 20.1 21 19V5C21 3.9 20.1 3 19 3H5C3.9 3 3 3.9 3 5V19C3 20.1 3.9 21 5 21ZM14 9.5H17C17.55 9.5 18 9.05 18 8.5C18 7.95 17.55 7.5 17 7.5H14C13.45 7.5 13 7.95 13 8.5C13 9.05 13.45 9.5 14 9.5ZM14 16.5H17C17.55 16.5 18 16.05 18 15.5C18 14.95 17.55 14.5 17 14.5H14C13.45 14.5 13 14.95 13 15.5C13 16.05 13.45 16.5 14 16.5ZM7 11H10C10.55 11 11 10.55 11 10V7C11 6.45 10.55 6 10 6H7C6.45 6 6 6.45 6 7V10C6 10.55 6.45 11 7 11ZM10 7H7V10H10V7ZM7 18H10C10.55 18 11 17.55 11 17V14C11 13.45 10.55 13 10 13H7C6.45 13 6 13.45 6 14V17C6 17.55 6.45 18 7 18ZM10 14H7V17H10V14Z" fill="black"/>
</svg>
